**harm	**harte	**kern	**silbe	**kern	**silbe	**kern	**silbe	**rhyme	**timestamp	**phrase	**leadinstrument
*M4/4	*M4/4	*ICvox	*	*ICvox	*	*ICvox	*	*	*	*	*
*	*	*VRlead	*	*VRharmonize	*	*VRharmonize	*	*	*	*	*
*	*	*Hstimme	*	*Nstimme	*	*Nstimme	*	*	*	*	*
*f#:	*f#:	*f#:	*	*f#:	*	*f#:	*	*	*f#:	*f#:	*f#:
*	*	*M4/4	*	*M4/4	*	*M4/4	*	*	*	*	*
*	*	*clefG2	*	*clefG2	*	*clefG2	*	*	*	*	*
1r;	N	r;	.	r;	.	r;	.	.	0	.	r
=1	=1	=1	=1	=1	=1	=1	=1	=1	=1	=1	=1
*>Letter>D	*>Letter>D	*>Letter>D	*>Letter>D	*>Letter>D	*>Letter>D	*>Letter>D	*>Letter>D	*>Letter>D	*>Letter>D	*>Letter>D	*>Letter>D
*>Label>Intro	*>Label>Intro	*>Label>Intro	*>Label>Intro	*>Label>Intro	*>Label>Intro	*>Label>Intro	*>Label>Intro	*>Label>Intro	*>Label>Intro	*>Label>Intro	*>Label>Intro
1i	F#:5	1r	.	1r	.	1r	.	.	0.306	newline	r
=2	=2	=2	=2	=2	=2	=2	=2	=2	=2	=2	=2
1i	F#:5	1r	.	1r	.	1r	.	.	2.069	.	r
=3	=3	=3	=3	=3	=3	=3	=3	=3	=3	=3	=3
1i	F#:5	1r	.	1r	.	1r	.	.	3.832	.	r
=4	=4	=4	=4	=4	=4	=4	=4	=4	=4	=4	=4
1i	F#:5	1r	.	1r	.	1r	.	.	5.594	.	r
=5	=5	=5	=5	=5	=5	=5	=5	=5	=5	=5	=5
1-VIIe	E:maj/2	1r	.	1r	.	1r	.	.	7.357	newline	r
=6	=6	=6	=6	=6	=6	=6	=6	=6	=6	=6	=6
1IVc	B:maj/5	1r	.	1r	.	1r	.	.	9.119	.	r
=7	=7	=7	=7	=7	=7	=7	=7	=7	=7	=7	=7
1i	F#:5	1r	.	1r	.	1r	.	.	10.88	.	r
=8	=8	=8	=8	=8	=8	=8	=8	=8	=8	=8	=8
1i	F#:5	1r	.	1r	.	1r	.	.	12.642	.	r
=9	=9	=9	=9	=9	=9	=9	=9	=9	=9	=9	=9
1-VIIe	E:maj/2	1r	.	1r	.	1r	.	.	14.404	newline	r
=10	=10	=10	=10	=10	=10	=10	=10	=10	=10	=10	=10
1IVc	B:maj/5	1r	.	1r	.	1r	.	.	16.145	.	r
=11	=11	=11	=11	=11	=11	=11	=11	=11	=11	=11	=11
1i	F#:5	1r	.	1r	.	1r	.	.	17.886	.	r
=12	=12	=12	=12	=12	=12	=12	=12	=12	=12	=12	=12
1i	F#:5	2r	.	1r	.	1r	.	.	19.628	.	r
.	.	4.r	.	.	.	.	.	.	.	.	.
.	.	[8f#	One	.	.	.	.	.	.	.	.
=13	=13	=13	=13	=13	=13	=13	=13	=13	=13	=13	=13
*>Letter>A	*>Letter>A	*>Letter>A	*>Letter>A	*>Letter>A	*>Letter>A	*>Letter>A	*>Letter>A	*>Letter>A	*>Letter>A	*>Letter>A	*>Letter>A
*>Label>Verse	*>Label>Verse	*>Label>Verse	*>Label>Verse	*>Label>Verse	*>Label>Verse	*>Label>Verse	*>Label>Verse	*>Label>Verse	*>Label>Verse	*>Label>Verse	*>Label>Verse
1i	F#:5	4f#]	_	1r	.	1r	.	.	21.369	newline	voice
.	.	8e	_	.	.	.	.	.	.	.	.
.	.	4f#	life	.	.	.	.	A	.	.	.
.	.	4r	.	.	.	.	.	.	.	.	.
.	.	[8f#	I'm	.	.	.	.	.	.	.	.
=14	=14	=14	=14	=14	=14	=14	=14	=14	=14	=14	=14
1i	F#:5	4f#]	_	1r	.	1r	.	.	23.112	.	voice
.	.	8f#	go-	.	.	.	.	.	.	.	.
.	.	8e	-nna	.	.	.	.	.	.	.	.
.	.	8a	live	.	.	.	.	.	.	.	.
.	.	8a	it	.	.	.	.	(b	.	.	.
.	.	4a	up	.	.	.	.	B)	.	.	.
=15	=15	=15	=15	=15	=15	=15	=15	=15	=15	=15	=15
1i	F#:5	1r	.	1r	.	1r	.	.	24.854	.	voice
=16	=16	=16	=16	=16	=16	=16	=16	=16	=16	=16	=16
1i	F#:5	2r	.	1r	.	1r	.	.	26.597	.	voice
.	.	4.r	.	.	.	.	.	.	.	.	.
.	.	8e	I'm	.	.	.	.	.	.	.	.
=17	=17	=17	=17	=17	=17	=17	=17	=17	=17	=17	=17
1i	F#:5	8e	ta-	1r	.	1r	.	.	28.339	newline	voice
.	.	4f#	-kin'	.	.	.	.	.	.	.	.
.	.	4f#	flight	.	.	.	.	A	.	.	.
.	.	8f#	I	.	.	.	.	.	.	.	.
.	.	8f#	said	.	.	.	.	.	.	.	.
.	.	[8f#	I'll	.	.	.	.	.	.	.	.
=18	=18	=18	=18	=18	=18	=18	=18	=18	=18	=18	=18
1i	F#:5	4f#]	_	1r	.	1r	.	.	30.107	.	voice
.	.	8f#	ne-	.	.	.	.	.	.	.	.
.	.	8e	-ver	.	.	.	.	.	.	.	.
.	.	8a	get	.	.	.	.	.	.	.	.
.	.	8a	e-	.	.	.	.	(b	.	.	.
.	.	4f#	-nough	.	.	.	.	B)	.	.	.
=19	=19	=19	=19	=19	=19	=19	=19	=19	=19	=19	=19
1i	F#:5	1r	.	1r	.	1r	.	.	31.874	.	voice
=20	=20	=20	=20	=20	=20	=20	=20	=20	=20	=20	=20
1i	F#:5	2r	.	1r	.	1r	.	.	33.642	.	voice
.	.	4.r	.	.	.	.	.	.	.	.	.
.	.	[8a	Stand	.	.	.	.	.	.	.	.
=21	=21	=21	=21	=21	=21	=21	=21	=21	=21	=21	=21
1i	F#:5	4.a]	_	1r	.	1r	.	.	35.409	newline	voice
.	.	4.cc#	tall	.	.	.	.	C	.	.	.
.	.	8r	.	.	.	.	.	.	.	.	.
.	.	[8f#	I'm	.	.	.	.	.	.	.	.
=22	=22	=22	=22	=22	=22	=22	=22	=22	=22	=22	=22
1i	F#:5	8f#]	_	1r	.	1r	.	.	37.155	.	voice
.	.	8e	a	.	.	.	.	.	.	.	.
.	.	8f#	young	.	.	.	.	.	.	.	.
.	.	8e	and	.	.	.	.	.	.	.	.
.	.	8a	kind-	.	.	.	.	.	.	.	.
.	.	8f#	-a	.	.	.	.	.	.	.	.
.	.	[4a	proud	.	.	.	.	D	.	.	.
=23	=23	=23	=23	=23	=23	=23	=23	=23	=23	=23	=23
1i	F#:5	4a]	_	1r	.	1r	.	.	38.901	.	voice
.	.	4r	.	.	.	.	.	.	.	.	.
.	.	2r	.	.	.	.	.	.	.	.	.
=24	=24	=24	=24	=24	=24	=24	=24	=24	=24	=24	=24
1i	F#:5	2r	.	1r	.	1r	.	.	40.646	.	voice
.	.	4r	.	.	.	.	.	.	.	.	.
.	.	8r	.	.	.	.	.	.	.	.	.
.	.	8c#	I'm	.	.	.	.	.	.	.	.
=25	=25	=25	=25	=25	=25	=25	=25	=25	=25	=25	=25
1i	F#:5	4a	on	1r	.	1r	.	.	42.392	newline	voice
.	.	8a	the	.	.	.	.	.	.	.	.
.	.	8a	top	.	.	.	.	C	.	.	.
.	.	8r	.	.	.	.	.	.	.	.	.
.	.	4e	as	.	.	.	.	.	.	.	.
.	.	[8f#	long	.	.	.	.	.	.	.	.
=26	=26	=26	=26	=26	=26	=26	=26	=26	=26	=26	=26
1i	F#:5	4f#]	_	1r	.	1r	.	.	44.144	.	voice
.	.	8e	as	.	.	.	.	.	.	.	.
.	.	8e	the	.	.	.	.	.	.	.	.
.	.	8f#	mu-	.	.	.	.	.	.	.	.
.	.	4e	-sics	.	.	.	.	.	.	.	.
.	.	[8f#	loud	.	.	.	.	D	.	.	.
=27	=27	=27	=27	=27	=27	=27	=27	=27	=27	=27	=27
1i	F#:5	8f#]	_	1r	.	1r	.	.	45.897	.	voice
.	.	[4.e	_	.	.	.	.	.	.	.	.
.	.	4e]	_	.	.	.	.	.	.	.	.
.	.	4r	.	.	.	.	.	.	.	.	.
=28	=28	=28	=28	=28	=28	=28	=28	=28	=28	=28	=28
1i	F#:5	1r	.	1r	.	1r	.	.	47.649	.	voice
=29	=29	=29	=29	=29	=29	=29	=29	=29	=29	=29	=29
*>Letter>B	*>Letter>B	*>Letter>B	*>Letter>B	*>Letter>B	*>Letter>B	*>Letter>B	*>Letter>B	*>Letter>B	*>Letter>B	*>Letter>B	*>Letter>B
*>Label>Prechorus	*>Label>Prechorus	*>Label>Prechorus	*>Label>Prechorus	*>Label>Prechorus	*>Label>Prechorus	*>Label>Prechorus	*>Label>Prechorus	*>Label>Prechorus	*>Label>Prechorus	*>Label>Prechorus	*>Label>Prechorus
1I	F#:maj	8f#	If	1r	.	1r	.	.	49.402	newline	voice
.	.	8e	you	.	.	.	.	.	.	.	.
.	.	16f#	think	.	.	.	.	.	.	.	.
.	.	8.e	I'll	.	.	.	.	.	.	.	.
.	.	16f#	sit	.	.	.	.	.	.	.	.
.	.	16e	a-	.	.	.	.	.	.	.	.
.	.	4f#	-round	.	.	.	.	.	.	.	.
.	.	[8f#	as	.	.	.	.	.	.	.	.
=30	=30	=30	=30	=30	=30	=30	=30	=30	=30	=30	=30
1-VIb	D:maj/3	8f#]	_	1r	.	1r	.	.	51.15	.	voice
.	.	8e	the	.	.	.	.	.	.	.	.
.	.	8e	world	.	.	.	.	.	.	.	.
.	.	8f#	goes	.	.	.	.	.	.	.	.
.	.	4B	by	.	.	.	.	E	.	.	.
.	.	8r	.	.	.	.	.	.	.	.	.
.	.	8B	You're	.	.	.	.	.	.	.	.
=31	=31	=31	=31	=31	=31	=31	=31	=31	=31	=31	=31
1IVc	B:maj/5	8B	think-	1r	.	1r	.	.	52.899	.	voice
.	.	8A	-in'	.	.	.	.	.	.	.	.
.	.	8B	like	.	.	.	.	.	.	.	.
.	.	8A	a	.	.	.	.	.	.	.	.
.	.	8B	fool	.	.	.	.	.	.	.	.
.	.	16A	'cause	.	.	.	.	.	.	.	.
.	.	[16B	it's	.	.	.	.	.	.	.	.
.	.	16B]	_	.	.	.	.	.	.	.	.
.	.	16A	a	.	.	.	.	.	.	.	.
.	.	[8c#	case	.	.	.	.	.	.	.	.
=32	=32	=32	=32	=32	=32	=32	=32	=32	=32	=32	=32
1I	F#:maj	8c#]	_	1r	.	1r	.	.	54.648	.	voice
.	.	8F#	of	.	.	.	.	.	.	.	.
.	.	16F#	do	.	.	.	.	.	.	.	.
.	.	16E	or	.	.	.	.	.	.	.	.
.	.	4.F#	die	.	.	.	.	E	.	.	.
.	.	8r	.	.	.	.	.	.	.	.	.
.	.	[8f#	Out	.	.	.	.	.	.	.	.
=33	=33	=33	=33	=33	=33	=33	=33	=33	=33	=33	=33
1I	F#:maj	8f#]	_	1r	.	1r	.	.	56.397	newline	voice
.	.	8e	there	.	.	.	.	.	.	.	.
.	.	16f#	is	.	.	.	.	.	.	.	.
.	.	8e	a	.	.	.	.	.	.	.	.
.	.	[16f#	for-	.	.	.	.	.	.	.	.
.	.	8f#]	_	.	.	.	.	.	.	.	.
.	.	4e	-tune	.	.	.	.	.	.	.	.
.	.	[8f#	wai-	.	.	.	.	.	.	.	.
=34	=34	=34	=34	=34	=34	=34	=34	=34	=34	=34	=34
1-VIb	D:maj/3	8f#]	_	1r	.	1r	.	.	58.145	.	voice
.	.	8e	-ting	.	.	.	.	.	.	.	.
.	.	16e	to	.	.	.	.	.	.	.	.
.	.	16f#	be	.	.	.	.	.	.	.	.
.	.	4.B	had	.	.	.	.	F	.	.	.
.	.	8r	.	.	.	.	.	.	.	.	.
.	.	8B	You	.	.	.	.	.	.	.	.
=35	=35	=35	=35	=35	=35	=35	=35	=35	=35	=35	=35
1IVc	B:maj/5	8B	think	1r	.	1r	.	.	59.894	.	voice
.	.	8A	I'll	.	.	.	.	.	.	.	.
.	.	8B	let	.	.	.	.	.	.	.	.
.	.	8A	it	.	.	.	.	.	.	.	.
.	.	8B	go	.	.	.	.	.	.	.	.
.	.	4A	you're	.	.	.	.	.	.	.	.
.	.	[8c#	mad	.	.	.	.	F	.	.	.
=36	=36	=36	=36	=36	=36	=36	=36	=36	=36	=36	=36
1v	C#:5	8c#]	_	1r	.	1r	.	.	61.643	.	voice
.	.	8c#	You	.	.	.	.	.	.	.	.
.	.	8B	got	.	.	.	.	.	.	.	.
.	.	8A	a-	.	.	.	.	.	.	.	.
.	.	8B	-no-	.	.	.	.	.	.	.	.
.	.	8A	-ther	.	.	.	.	.	.	.	.
.	.	4c#	thing	.	.	.	.	.	.	.	.
=37	=37	=37	=37	=37	=37	=37	=37	=37	=37	=37	=37
*>Letter>C	*>Letter>C	*>Letter>C	*>Letter>C	*>Letter>C	*>Letter>C	*>Letter>C	*>Letter>C	*>Letter>C	*>Letter>C	*>Letter>C	*>Letter>C
*>Label>Chorus	*>Label>Chorus	*>Label>Chorus	*>Label>Chorus	*>Label>Chorus	*>Label>Chorus	*>Label>Chorus	*>Label>Chorus	*>Label>Chorus	*>Label>Chorus	*>Label>Chorus	*>Label>Chorus
1i	F#:min	8A	co-	1r	.	1r	.	.	63.392	newline	voice
.	.	8F#	-min'	.	.	.	.	.	.	.	.
.	.	4r	.	.	.	.	.	.	.	.	.
.	.	2r	.	.	.	.	.	.	.	.	.
=38	=38	=38	=38	=38	=38	=38	=38	=38	=38	=38	=38
2i	F#:min	8r	.	8r	.	1r	.	.	65.119	.	voice
.	.	8F#	You	8f#	You	.	.	.	.	.	.
.	.	8F#	got	8f#	got	.	.	.	.	.	.
.	.	8F#	a-	8f#	a-	.	.	.	.	.	.
4-IIIg	A:5/6	8A	-no-	8a	-no-	.	.	.	65.983	.	voice
.	.	8F#	-ther	8f#	-ther	.	.	.	.	.	.
4ivc	B:5/5	4B	thing	4b	thing	.	.	.	66.414	.	voice
=39	=39	=39	=39	=39	=39	=39	=39	=39	=39	=39	=39
1i	F#:min	8A	co-	8a	co-	1r	.	.	66.846	.	voice
.	.	8F#	-min'	8f#	-min'	.	.	.	.	.	.
.	.	4r	.	4r	.	.	.	.	.	.	.
.	.	2r	.	2r	.	.	.	.	.	.	.
=40	=40	=40	=40	=40	=40	=40	=40	=40	=40	=40	=40
2i	F#:min	2r	.	1r	.	1r	.	.	68.573	.	voice
4-III	A:5	4.r	.	.	.	.	.	.	69.437	.	voice
4iv	B:5	.	.	.	.	.	.	.	69.869	.	voice
.	.	[8f#	That's	.	.	.	.	.	.	.	.
=41	=41	=41	=41	=41	=41	=41	=41	=41	=41	=41	=41
*>Letter>A	*>Letter>A	*>Letter>A	*>Letter>A	*>Letter>A	*>Letter>A	*>Letter>A	*>Letter>A	*>Letter>A	*>Letter>A	*>Letter>A	*>Letter>A
*>Label>Verse	*>Label>Verse	*>Label>Verse	*>Label>Verse	*>Label>Verse	*>Label>Verse	*>Label>Verse	*>Label>Verse	*>Label>Verse	*>Label>Verse	*>Label>Verse	*>Label>Verse
1i	F#:5	4.f#]	_	1r	.	1r	.	.	70.301	newline	voice
.	.	16f#	right	.	.	.	.	.	.	.	.
.	.	[16e	_	.	.	.	.	.	.	.	.
.	.	4.e]	_	.	.	.	.	.	.	.	.
.	.	[8e	here's	.	.	.	.	.	.	.	.
=42	=42	=42	=42	=42	=42	=42	=42	=42	=42	=42	=42
1i	F#:5	4e]	_	1r	.	1r	.	.	72.043	.	voice
.	.	8e	where	.	.	.	.	.	.	.	.
.	.	8c#	the	.	.	.	.	.	.	.	.
.	.	8e	tal-	.	.	.	.	.	.	.	.
.	.	8f#	-king	.	.	.	.	.	.	.	.
.	.	4f#	ends	.	.	.	.	G	.	.	.
=43	=43	=43	=43	=43	=43	=43	=43	=43	=43	=43	=43
1i	F#:5	1r	.	1r	.	1r	.	.	73.785	.	voice
=44	=44	=44	=44	=44	=44	=44	=44	=44	=44	=44	=44
1i	F#:5	2r	.	1r	.	1r	.	.	75.527	.	voice
.	.	4r	.	.	.	.	.	.	.	.	.
.	.	8r	.	.	.	.	.	.	.	.	.
.	.	8f#	Well	.	.	.	.	.	.	.	.
=45	=45	=45	=45	=45	=45	=45	=45	=45	=45	=45	=45
1i	F#:5	8a	list-	1r	.	1r	.	.	77.27	newline	voice
.	.	8a	-ten	.	.	.	.	.	.	.	.
.	.	8a	this	.	.	.	.	.	.	.	.
.	.	8a	a	.	.	.	.	.	.	.	.
.	.	8a	night	.	.	.	.	.	.	.	.
.	.	8r	.	.	.	.	.	.	.	.	.
.	.	4a	they'll	.	.	.	.	.	.	.	.
=46	=46	=46	=46	=46	=46	=46	=46	=46	=46	=46	=46
1i	F#:5	8a	be	1r	.	1r	.	.	79.009	.	voice
.	.	4e	some	.	.	.	.	.	.	.	.
.	.	4e	ac-	.	.	.	.	.	.	.	.
.	.	8f#	-tion	.	.	.	.	.	.	.	.
.	.	4f#	spent	.	.	.	.	G	.	.	.
=47	=47	=47	=47	=47	=47	=47	=47	=47	=47	=47	=47
1i	F#:5	1r	.	1r	.	1r	.	.	80.748	.	voice
=48	=48	=48	=48	=48	=48	=48	=48	=48	=48	=48	=48
1i	F#:5	2r	.	1r	.	1r	.	.	82.487	.	voice
.	.	4r	.	.	.	.	.	.	.	.	.
.	.	8r	.	.	.	.	.	.	.	.	.
.	.	16e	Drive	.	.	.	.	.	.	.	.
.	.	[16f#	_	.	.	.	.	.	.	.	.
=49	=49	=49	=49	=49	=49	=49	=49	=49	=49	=49	=49
1i	F#:5	4.f#]	_	1r	.	1r	.	.	84.226	newline	voice
.	.	8cc#	hard	.	.	.	.	.	.	.	.
.	.	4e	_	.	.	.	.	.	.	.	.
.	.	8r	.	.	.	.	.	.	.	.	.
.	.	[8f#	call-	.	.	.	.	.	.	.	.
=50	=50	=50	=50	=50	=50	=50	=50	=50	=50	=50	=50
1i	F#:5	8f#]	_	1r	.	1r	.	.	85.979	.	voice
.	.	8e	-in'	.	.	.	.	.	.	.	.
.	.	8f#	all	.	.	.	.	.	.	.	.
.	.	8e	the	.	.	.	.	.	.	.	.
.	.	8r	.	.	.	.	.	.	.	.	.
.	.	8g#	shots	.	.	.	.	H	.	.	.
.	.	8r	.	.	.	.	.	.	.	.	.
.	.	8c#	uh	.	.	.	.	.	.	.	.
=51	=51	=51	=51	=51	=51	=51	=51	=51	=51	=51	=51
1i	F#:5	1r	.	1r	.	1r	.	.	87.733	.	voice
=52	=52	=52	=52	=52	=52	=52	=52	=52	=52	=52	=52
1i	F#:5	2r	.	1r	.	1r	.	.	89.487	.	voice
.	.	4r	.	.	.	.	.	.	.	.	.
.	.	8r	.	.	.	.	.	.	.	.	.
.	.	8f#	I	.	.	.	.	.	.	.	.
=53	=53	=53	=53	=53	=53	=53	=53	=53	=53	=53	=53
1i	F#:5	8a	got	1r	.	1r	.	.	91.241	newline	voice
.	.	8f#	an	.	.	.	.	.	.	.	.
.	.	4f#	ace	.	.	.	.	.	.	.	.
.	.	4f#	car	.	.	.	.	.	.	.	.
.	.	8e	com-	.	.	.	.	.	.	.	.
.	.	8e	-in'	.	.	.	.	.	.	.	.
=54	=54	=54	=54	=54	=54	=54	=54	=54	=54	=54	=54
1i	F#:5	8a	down	1r	.	1r	.	.	92.975	.	voice
.	.	8f#	on	.	.	.	.	.	.	.	.
.	.	8f#	the	.	.	.	.	.	.	.	.
.	.	[8a	rocks	.	.	.	.	H	.	.	.
.	.	4.a]	_	.	.	.	.	.	.	.	.
.	.	[8f#	_	.	.	.	.	.	.	.	.
=55	=55	=55	=55	=55	=55	=55	=55	=55	=55	=55	=55
1i	F#:5	4f#]	_	1r	.	1r	.	.	94.71	.	voice
.	.	4r	.	.	.	.	.	.	.	.	.
.	.	2r	.	.	.	.	.	.	.	.	.
=56	=56	=56	=56	=56	=56	=56	=56	=56	=56	=56	=56
1i	F#:5	1r	.	1r	.	1r	.	.	96.444	.	voice
=57	=57	=57	=57	=57	=57	=57	=57	=57	=57	=57	=57
*>Letter>B	*>Letter>B	*>Letter>B	*>Letter>B	*>Letter>B	*>Letter>B	*>Letter>B	*>Letter>B	*>Letter>B	*>Letter>B	*>Letter>B	*>Letter>B
*>Label>Prechorus	*>Label>Prechorus	*>Label>Prechorus	*>Label>Prechorus	*>Label>Prechorus	*>Label>Prechorus	*>Label>Prechorus	*>Label>Prechorus	*>Label>Prechorus	*>Label>Prechorus	*>Label>Prechorus	*>Label>Prechorus
1I	F#:maj	8f#	If	1r	.	1r	.	.	98.179	newline	voice
.	.	8e	you	.	.	.	.	.	.	.	.
.	.	16f#	think	.	.	.	.	.	.	.	.
.	.	8.e	I'll	.	.	.	.	.	.	.	.
.	.	16f#	sit	.	.	.	.	.	.	.	.
.	.	16e	a-	.	.	.	.	.	.	.	.
.	.	4f#	-round	.	.	.	.	.	.	.	.
.	.	16f#	while	.	.	.	.	.	.	.	.
.	.	16e	they	.	.	.	.	.	.	.	.
=58	=58	=58	=58	=58	=58	=58	=58	=58	=58	=58	=58
1-VIb	D:maj/3	16f#	chip	1r	.	1r	.	.	99.917	.	voice
.	.	16e	a-	.	.	.	.	.	.	.	.
.	.	16e	-way	.	.	.	.	.	.	.	.
.	.	[16f#	my	.	.	.	.	.	.	.	.
.	.	8f#]	_	.	.	.	.	.	.	.	.
.	.	4.B	brain	.	.	.	.	I	.	.	.
.	.	8r	.	.	.	.	.	.	.	.	.
.	.	[8B	Lis-	.	.	.	.	.	.	.	.
=59	=59	=59	=59	=59	=59	=59	=59	=59	=59	=59	=59
1IVc	B:maj/5	8B]	_	1r	.	1r	.	.	101.656	.	voice
.	.	8A	-ten	.	.	.	.	.	.	.	.
.	.	16B	I	.	.	.	.	.	.	.	.
.	.	8.A	ain't	.	.	.	.	.	.	.	.
.	.	16B	foo-	.	.	.	.	.	.	.	.
.	.	8A	-lin'	.	.	.	.	.	.	.	.
.	.	16B	and	.	.	.	.	.	.	.	.
.	.	8A	you	.	.	.	.	.	.	.	.
.	.	16c#	be-	.	.	.	.	.	.	.	.
.	.	[16F#	-tter	.	.	.	.	.	.	.	.
=60	=60	=60	=60	=60	=60	=60	=60	=60	=60	=60	=60
1I	F#:maj	8F#]	_	1r	.	1r	.	.	103.394	.	voice
.	.	8F#	think	.	.	.	.	.	.	.	.
.	.	8E	a-	.	.	.	.	.	.	.	.
.	.	4.F#	-gain	.	.	.	.	I	.	.	.
.	.	8r	.	.	.	.	.	.	.	.	.
.	.	[8f#	Out	.	.	.	.	.	.	.	.
=61	=61	=61	=61	=61	=61	=61	=61	=61	=61	=61	=61
1I	F#:maj	8f#]	_	1r	.	1r	.	.	105.133	newline	voice
.	.	8e	there	.	.	.	.	.	.	.	.
.	.	16f#	is	.	.	.	.	.	.	.	.
.	.	8e	a	.	.	.	.	.	.	.	.
.	.	[16f#	for-	.	.	.	.	.	.	.	.
.	.	8f#]	_	.	.	.	.	.	.	.	.
.	.	4e	-tune	.	.	.	.	.	.	.	.
.	.	[8f#	wai-	.	.	.	.	.	.	.	.
=62	=62	=62	=62	=62	=62	=62	=62	=62	=62	=62	=62
1-VIb	D:maj/3	8f#]	_	1r	.	1r	.	.	106.873	.	voice
.	.	8e	-ting	.	.	.	.	.	.	.	.
.	.	8e	to	.	.	.	.	.	.	.	.
.	.	8f#	be	.	.	.	.	.	.	.	.
.	.	4B	had	.	.	.	.	F	.	.	.
.	.	8r	.	.	.	.	.	.	.	.	.
.	.	8B	You	.	.	.	.	.	.	.	.
=63	=63	=63	=63	=63	=63	=63	=63	=63	=63	=63	=63
1IVc	B:maj/5	8B	think	1r	.	1r	.	.	108.614	.	voice
.	.	8A	I'll	.	.	.	.	.	.	.	.
.	.	8B	let	.	.	.	.	.	.	.	.
.	.	8A	it	.	.	.	.	.	.	.	.
.	.	8B	go	.	.	.	.	.	.	.	.
.	.	4A	you're	.	.	.	.	.	.	.	.
.	.	[8c#	mad	.	.	.	.	F	.	.	.
=64	=64	=64	=64	=64	=64	=64	=64	=64	=64	=64	=64
1v	C#:5	8c#]	_	1r	.	1r	.	.	110.354	.	voice
.	.	8c#	You	.	.	.	.	.	.	.	.
.	.	8B	got	.	.	.	.	.	.	.	.
.	.	8A	a-	.	.	.	.	.	.	.	.
.	.	8B	-no-	.	.	.	.	.	.	.	.
.	.	8A	-ther	.	.	.	.	.	.	.	.
.	.	4c#	thing	.	.	.	.	.	.	.	.
=65	=65	=65	=65	=65	=65	=65	=65	=65	=65	=65	=65
*>Letter>C	*>Letter>C	*>Letter>C	*>Letter>C	*>Letter>C	*>Letter>C	*>Letter>C	*>Letter>C	*>Letter>C	*>Letter>C	*>Letter>C	*>Letter>C
*>Label>Chorus	*>Label>Chorus	*>Label>Chorus	*>Label>Chorus	*>Label>Chorus	*>Label>Chorus	*>Label>Chorus	*>Label>Chorus	*>Label>Chorus	*>Label>Chorus	*>Label>Chorus	*>Label>Chorus
1i	F#:min	8A	co-	1r	.	1r	.	.	112.094	newline	voice
.	.	8F#	-min'	.	.	.	.	.	.	.	.
.	.	4r	.	.	.	.	.	.	.	.	.
.	.	2r	.	.	.	.	.	.	.	.	.
=66	=66	=66	=66	=66	=66	=66	=66	=66	=66	=66	=66
2i	F#:min	8r	.	8r	.	1r	.	.	113.825	.	voice
.	.	8F#	You	8f#	You	.	.	.	.	.	.
.	.	8F#	got	8f#	got	.	.	.	.	.	.
.	.	8F#	a-	8f#	a-	.	.	.	.	.	.
4-IIIg	A:5/6	8A	-no-	8a	-no-	.	.	.	114.69	.	voice
.	.	8F#	-ther	8f#	-ther	.	.	.	.	.	.
4ivc	B:5/5	4B	thing	4b	thing	.	.	.	115.123	.	voice
=67	=67	=67	=67	=67	=67	=67	=67	=67	=67	=67	=67
1i	F#:min	8A	co-	8a	co-	1r	.	.	115.556	.	voice
.	.	8F#	-min'	8f#	-min'	.	.	.	.	.	.
.	.	4r	.	4r	.	.	.	.	.	.	.
.	.	2r	.	2r	.	.	.	.	.	.	.
=68	=68	=68	=68	=68	=68	=68	=68	=68	=68	=68	=68
2i	F#:min	1r	.	1r	.	1r	.	.	117.286	.	voice
4-III	A:5	.	.	.	.	.	.	.	118.152	.	voice
4iv	B:5	.	.	.	.	.	.	.	118.584	.	voice
=69	=69	=69	=69	=69	=69	=69	=69	=69	=69	=69	=69
1i	F#:min	1r	.	1r	.	1r	.	.	119.017	newline	voice
=70	=70	=70	=70	=70	=70	=70	=70	=70	=70	=70	=70
2i	F#:min	8r	.	8r	.	1r	.	.	120.762	.	voice
.	.	8F#	You	8f#	You	.	.	.	.	.	.
.	.	8F#	got	8f#	got	.	.	.	.	.	.
.	.	8F#	a-	8f#	a-	.	.	.	.	.	.
4-IIIg	A:5/6	8A	-no-	8a	-no-	.	.	.	121.635	.	voice
.	.	8F#	-ther	8f#	-ther	.	.	.	.	.	.
4ivc	B:5/5	4B	thing	4b	thing	.	.	.	122.071	.	voice
=71	=71	=71	=71	=71	=71	=71	=71	=71	=71	=71	=71
1i	F#:min	8A	co-	8a	co-	1r	.	.	122.507	.	voice
.	.	8F#	-min'	8f#	-min'	.	.	.	.	.	.
.	.	4r	.	4r	.	.	.	.	.	.	.
.	.	2r	.	2r	.	.	.	.	.	.	.
=72	=72	=72	=72	=72	=72	=72	=72	=72	=72	=72	=72
2i	F#:min	1r	.	1r	.	1r	.	.	124.252	.	voice
4-III	A:5	.	.	.	.	.	.	.	125.125	.	voice
4iv	B:5	.	.	.	.	.	.	.	125.561	.	voice
=73	=73	=73	=73	=73	=73	=73	=73	=73	=73	=73	=73
*>Letter>E	*>Letter>E	*>Letter>E	*>Letter>E	*>Letter>E	*>Letter>E	*>Letter>E	*>Letter>E	*>Letter>E	*>Letter>E	*>Letter>E	*>Letter>E
*>Label>Bridge	*>Label>Bridge	*>Label>Bridge	*>Label>Bridge	*>Label>Bridge	*>Label>Bridge	*>Label>Bridge	*>Label>Bridge	*>Label>Bridge	*>Label>Bridge	*>Label>Bridge	*>Label>Bridge
1iv7	B:min7	4a	In	1r	.	1r	.	.	125.998	newline	voice
.	.	4g#	this	.	.	.	.	.	.	.	.
.	.	4f#	world	.	.	.	.	.	.	.	.
.	.	4f#	we're	.	.	.	.	.	.	.	.
=74	=74	=74	=74	=74	=74	=74	=74	=74	=74	=74	=74
1-VIc	D:maj/5	8a	liv-	1r	.	1r	.	.	127.716	.	voice
.	.	4g#	-ing	.	.	.	.	.	.	.	.
.	.	4f#	in	.	.	.	.	.	.	.	.
.	.	4f#	we	.	.	.	.	.	.	.	.
.	.	16f#	had	.	.	.	.	.	.	.	.
.	.	[16e	_	.	.	.	.	.	.	.	.
=75	=75	=75	=75	=75	=75	=75	=75	=75	=75	=75	=75
1-III	A:maj	8e]	_	1r	.	1r	.	.	129.434	.	voice
.	.	4c#	our	.	.	.	.	.	.	.	.
.	.	16c#	share	.	.	.	.	.	.	.	.
.	.	16B	_	.	.	.	.	.	.	.	.
.	.	8A	_	.	.	.	.	.	.	.	.
.	.	4B	of	.	.	.	.	.	.	.	.
.	.	[8B	so-	.	.	.	.	(J	.	.	.
=76	=76	=76	=76	=76	=76	=76	=76	=76	=76	=76	=76
1I	F#:maj	8B]	_	1r	.	1r	.	.	131.153	.	voice
.	.	4.c#	-rrow	.	.	.	.	j)	.	.	.
.	.	4r	.	.	.	.	.	.	.	.	.
.	.	8r	.	.	.	.	.	.	.	.	.
.	.	[8a	An-	.	.	.	.	.	.	.	.
=77	=77	=77	=77	=77	=77	=77	=77	=77	=77	=77	=77
1iv7	B:min7	8a]	_	1r	.	1r	.	.	132.871	newline	voice
.	.	8g#	_	.	.	.	.	.	.	.	.
.	.	8g#	-swer	.	.	.	.	.	.	.	.
.	.	4f#	now	.	.	.	.	.	.	.	.
.	.	4f#	is	.	.	.	.	.	.	.	.
.	.	[8a	don't	.	.	.	.	.	.	.	.
=78	=78	=78	=78	=78	=78	=78	=78	=78	=78	=78	=78
1-VIc	D:maj/5	8a]	_	1r	.	1r	.	.	134.606	.	voice
.	.	8g#	give	.	.	.	.	.	.	.	.
.	.	8f#	_	.	.	.	.	.	.	.	.
.	.	4f#	in	.	.	.	.	.	.	.	.
.	.	8r	.	.	.	.	.	.	.	.	.
.	.	8r	.	.	.	.	.	.	.	.	.
.	.	[8f#	Aim	.	.	.	.	.	.	.	.
=79	=79	=79	=79	=79	=79	=79	=79	=79	=79	=79	=79
1-III	A:maj	8f#]	_	1r	.	1r	.	.	136.34	.	voice
.	.	8f#	for	.	.	.	.	.	.	.	.
.	.	8f#	a	.	.	.	.	.	.	.	.
.	.	4f#	new	.	.	.	.	.	.	.	.
.	.	4f#	to-	.	.	.	.	.	.	.	.
.	.	[8cc#	-mor-	.	.	.	.	(J	.	.	.
=80	=80	=80	=80	=80	=80	=80	=80	=80	=80	=80	=80
1v	C#:5	8cc#]	_	1r	.	1r	.	.	138.075	.	voice
.	.	[4.cc#	-row	.	.	.	.	j)	.	.	.
.	.	2cc#_	_	.	.	.	.	.	.	.	.
=81	=81	=81	=81	=81	=81	=81	=81	=81	=81	=81	=81
*>Letter>C	*>Letter>C	*>Letter>C	*>Letter>C	*>Letter>C	*>Letter>C	*>Letter>C	*>Letter>C	*>Letter>C	*>Letter>C	*>Letter>C	*>Letter>C
*>Label>Solo	*>Label>Solo	*>Label>Solo	*>Label>Solo	*>Label>Solo	*>Label>Solo	*>Label>Solo	*>Label>Solo	*>Label>Solo	*>Label>Solo	*>Label>Solo	*>Label>Solo
1i	F#:min	2..cc#]	_	1r	.	1r	.	.	139.81	newline	guitar
.	.	[8cc	_	.	.	.	.	.	.	.	.
=82	=82	=82	=82	=82	=82	=82	=82	=82	=82	=82	=82
2i	F#:min	4cc]	_	1r	.	1r	.	.	141.523	.	guitar
.	.	[2b	_	.	.	.	.	.	.	.	.
4-IIIg	A:5/6	.	.	.	.	.	.	.	142.379	.	guitar
4ivc	B:5/5	8b]	_	.	.	.	.	.	142.808	.	guitar
.	.	16a	_	.	.	.	.	.	.	.	.
.	.	16b	_	.	.	.	.	.	.	.	.
=83	=83	=83	=83	=83	=83	=83	=83	=83	=83	=83	=83
1i	F#:min	1a	_	1r	.	1r	.	.	143.236	.	guitar
=84	=84	=84	=84	=84	=84	=84	=84	=84	=84	=84	=84
2i	F#:min	1r	.	1r	.	1r	.	.	144.949	.	guitar
4-III	A:5	.	.	.	.	.	.	.	145.806	.	guitar
4iv	B:5	.	.	.	.	.	.	.	146.234	.	guitar
=85	=85	=85	=85	=85	=85	=85	=85	=85	=85	=85	=85
1i	F#:min	1r	.	1r	.	1r	.	.	146.662	newline	guitar
=86	=86	=86	=86	=86	=86	=86	=86	=86	=86	=86	=86
2i	F#:min	1r	.	1r	.	1r	.	.	148.405	.	guitar
4-IIIg	A:5/6	.	.	.	.	.	.	.	149.276	.	guitar
4ivc	B:5/5	.	.	.	.	.	.	.	149.712	.	guitar
=87	=87	=87	=87	=87	=87	=87	=87	=87	=87	=87	=87
1i	F#:min	1r	.	1r	.	1r	.	.	150.147	.	guitar
=88	=88	=88	=88	=88	=88	=88	=88	=88	=88	=88	=88
2i	F#:min	1r	.	1r	.	1r	.	.	151.89	.	guitar
4-III	A:5	.	.	.	.	.	.	.	152.761	.	guitar
4iv	B:5	.	.	.	.	.	.	.	153.196	.	guitar
=89	=89	=89	=89	=89	=89	=89	=89	=89	=89	=89	=89
*>Letter>B	*>Letter>B	*>Letter>B	*>Letter>B	*>Letter>B	*>Letter>B	*>Letter>B	*>Letter>B	*>Letter>B	*>Letter>B	*>Letter>B	*>Letter>B
*>Label>Solo	*>Label>Solo	*>Label>Solo	*>Label>Solo	*>Label>Solo	*>Label>Solo	*>Label>Solo	*>Label>Solo	*>Label>Solo	*>Label>Solo	*>Label>Solo	*>Label>Solo
1I	F#:maj	1r	.	1r	.	1r	.	.	153.632	newline	guitar
=90	=90	=90	=90	=90	=90	=90	=90	=90	=90	=90	=90
1-VIb	D:maj/3	1r	.	1r	.	1r	.	.	155.351	.	guitar
=91	=91	=91	=91	=91	=91	=91	=91	=91	=91	=91	=91
1IVc	B:maj/5	1r	.	1r	.	1r	.	.	157.07	.	guitar
=92	=92	=92	=92	=92	=92	=92	=92	=92	=92	=92	=92
1I	F#:maj	1r	.	1r	.	1r	.	.	158.79	.	guitar
=93	=93	=93	=93	=93	=93	=93	=93	=93	=93	=93	=93
1I	F#:maj	1r	.	1r	.	1r	.	.	160.509	newline	guitar
=94	=94	=94	=94	=94	=94	=94	=94	=94	=94	=94	=94
1-VIb	D:maj/3	1r	.	1r	.	1r	.	.	162.246	.	guitar
=95	=95	=95	=95	=95	=95	=95	=95	=95	=95	=95	=95
1IVc	B:maj/5	1r	.	1r	.	1r	.	.	163.982	.	guitar
=96	=96	=96	=96	=96	=96	=96	=96	=96	=96	=96	=96
1v	C#:5	1r	.	1r	.	1r	.	.	165.719	.	guitar
=97	=97	=97	=97	=97	=97	=97	=97	=97	=97	=97	=97
1-III	A:5	2r	.	1r	.	1r	.	.	167.456	.	guitar
.	.	4r	.	.	.	.	.	.	.	.	.
.	.	8r	.	.	.	.	.	.	.	.	.
.	.	[8a	Oh	.	.	.	.	.	.	.	.
=98	=98	=98	=98	=98	=98	=98	=98	=98	=98	=98	=98
*>Letter>A	*>Letter>A	*>Letter>A	*>Letter>A	*>Letter>A	*>Letter>A	*>Letter>A	*>Letter>A	*>Letter>A	*>Letter>A	*>Letter>A	*>Letter>A
*>Label>Verse	*>Label>Verse	*>Label>Verse	*>Label>Verse	*>Label>Verse	*>Label>Verse	*>Label>Verse	*>Label>Verse	*>Label>Verse	*>Label>Verse	*>Label>Verse	*>Label>Verse
1i	F#:5	4a]	_	1r	.	1r	.	.	169.192	newline	voice
.	.	4a	so	.	.	.	.	.	.	.	.
.	.	8cc#	hot	.	.	.	.	.	.	.	.
.	.	8r	.	.	.	.	.	.	.	.	.
.	.	8e	no	.	.	.	.	.	.	.	.
.	.	[8f#	time	.	.	.	.	.	.	.	.
=99	=99	=99	=99	=99	=99	=99	=99	=99	=99	=99	=99
1i	F#:5	8f#]	_	1r	.	1r	.	.	170.91	.	voice
.	.	8e	to	.	.	.	.	.	.	.	.
.	.	8f#	take	.	.	.	.	.	.	.	.
.	.	8e	a	.	.	.	.	.	.	.	.
.	.	4a	rest	.	.	.	.	K	.	.	.
.	.	4c#	yeah	.	.	.	.	.	.	.	.
=100	=100	=100	=100	=100	=100	=100	=100	=100	=100	=100	=100
1i	F#:5	1r	.	1r	.	1r	.	.	172.628	.	voice
=101	=101	=101	=101	=101	=101	=101	=101	=101	=101	=101	=101
1i	F#:5	2r	.	1r	.	1r	.	.	174.345	.	voice
.	.	4r	.	.	.	.	.	.	.	.	.
.	.	8r	.	.	.	.	.	.	.	.	.
.	.	[8a	Act	.	.	.	.	.	.	.	.
=102	=102	=102	=102	=102	=102	=102	=102	=102	=102	=102	=102
1i	F#:5	4.a]	_	1r	.	1r	.	.	176.063	newline	voice
.	.	4a	tough	.	.	.	.	.	.	.	.
.	.	4a	ain't	.	.	.	.	.	.	.	.
.	.	[8a	room	.	.	.	.	.	.	.	.
=103	=103	=103	=103	=103	=103	=103	=103	=103	=103	=103	=103
1i	F#:5	8a]	_	1r	.	1r	.	.	177.787	.	voice
.	.	4a	for	.	.	.	.	.	.	.	.
.	.	8a	se-	.	.	.	.	.	.	.	.
.	.	8r	.	.	.	.	.	.	.	.	.
.	.	8a	-cond	.	.	.	.	.	.	.	.
.	.	4a	best	.	.	.	.	K	.	.	.
=104	=104	=104	=104	=104	=104	=104	=104	=104	=104	=104	=104
1i	F#:5	1r	.	1r	.	1r	.	.	179.512	.	voice
=105	=105	=105	=105	=105	=105	=105	=105	=105	=105	=105	=105
1i	F#:5	2r	.	1r	.	1r	.	.	181.237	.	voice
.	.	4r	.	.	.	.	.	.	.	.	.
.	.	8r	.	.	.	.	.	.	.	.	.
.	.	[8a	Real	.	.	.	.	.	.	.	.
=106	=106	=106	=106	=106	=106	=106	=106	=106	=106	=106	=106
1i	F#:5	8a]	_	1r	.	1r	.	.	182.961	newline	voice
.	.	4e	_	.	.	.	.	.	.	.	.
.	.	4f#	strong	.	.	.	.	.	.	.	.
.	.	4e	_	.	.	.	.	.	.	.	.
.	.	8f#	got	.	.	.	.	.	.	.	.
=107	=107	=107	=107	=107	=107	=107	=107	=107	=107	=107	=107
1i	F#:5	8e	me	1r	.	1r	.	.	184.693	.	voice
.	.	8f#	some	.	.	.	.	.	.	.	.
.	.	8e	se-	.	.	.	.	.	.	.	.
.	.	8a	-cur-	.	.	.	.	.	.	.	.
.	.	8e	-i-	.	.	.	.	(l	.	.	.
.	.	4.a	-ty	.	.	.	.	L)	.	.	.
=108	=108	=108	=108	=108	=108	=108	=108	=108	=108	=108	=108
1i	F#:5	1r	.	1r	.	1r	.	.	186.426	.	voice
=109	=109	=109	=109	=109	=109	=109	=109	=109	=109	=109	=109
1i	F#:5	2r	.	1r	.	1r	.	.	188.158	.	voice
.	.	4r	.	.	.	.	.	.	.	.	.
.	.	8r	.	.	.	.	.	.	.	.	.
.	.	8f#	Hey	.	.	.	.	.	.	.	.
=110	=110	=110	=110	=110	=110	=110	=110	=110	=110	=110	=110
1i	F#:5	8e	I'm	1r	.	1r	.	.	189.89	newline	voice
.	.	8e	a	.	.	.	.	.	.	.	.
.	.	4f#	big	.	.	.	.	.	.	.	.
.	.	4e	smash	.	.	.	.	.	.	.	.
.	.	8e	I'm	.	.	.	.	.	.	.	.
.	.	[8f#	go-	.	.	.	.	.	.	.	.
=111	=111	=111	=111	=111	=111	=111	=111	=111	=111	=111	=111
1i	F#:5	8f#]	_	1r	.	1r	.	.	191.61	.	voice
.	.	8e	-in'	.	.	.	.	.	.	.	.
.	.	8f#	for	.	.	.	.	.	.	.	.
.	.	8e	in-	.	.	.	.	.	.	.	.
.	.	8r	.	.	.	.	.	.	.	.	.
.	.	8a	-fin-	.	.	.	.	.	.	.	.
.	.	8e	-i-	.	.	.	.	(l	.	.	.
.	.	[8a	-ty	.	.	.	.	L)	.	.	.
=112	=112	=112	=112	=112	=112	=112	=112	=112	=112	=112	=112
1i	F#:5	4.a]	_	1r	.	1r	.	.	193.33	.	voice
.	.	4.f#	yeah	.	.	.	.	.	.	.	.
.	.	4r	.	.	.	.	.	.	.	.	.
=113	=113	=113	=113	=113	=113	=113	=113	=113	=113	=113	=113
1i	F#:5	1r	.	1r	.	1r	.	.	195.05	.	voice
=114	=114	=114	=114	=114	=114	=114	=114	=114	=114	=114	=114
*>Letter>B	*>Letter>B	*>Letter>B	*>Letter>B	*>Letter>B	*>Letter>B	*>Letter>B	*>Letter>B	*>Letter>B	*>Letter>B	*>Letter>B	*>Letter>B
*>Label>Prechorus	*>Label>Prechorus	*>Label>Prechorus	*>Label>Prechorus	*>Label>Prechorus	*>Label>Prechorus	*>Label>Prechorus	*>Label>Prechorus	*>Label>Prechorus	*>Label>Prechorus	*>Label>Prechorus	*>Label>Prechorus
1I	F#:maj	8f#	If	1r	.	1r	.	.	196.77	newline	voice
.	.	8e	you	.	.	.	.	.	.	.	.
.	.	16f#	think	.	.	.	.	.	.	.	.
.	.	8.e	I'll	.	.	.	.	.	.	.	.
.	.	16f#	sit	.	.	.	.	.	.	.	.
.	.	16e	a-	.	.	.	.	.	.	.	.
.	.	4f#	-round	.	.	.	.	.	.	.	.
.	.	[8f#	as	.	.	.	.	.	.	.	.
=115	=115	=115	=115	=115	=115	=115	=115	=115	=115	=115	=115
1-VIb	D:maj/3	8f#]	_	1r	.	1r	.	.	198.487	.	voice
.	.	8e	the	.	.	.	.	.	.	.	.
.	.	8e	world	.	.	.	.	.	.	.	.
.	.	8f#	goes	.	.	.	.	.	.	.	.
.	.	4.B	by	.	.	.	.	E	.	.	.
.	.	8B	You're	.	.	.	.	.	.	.	.
=116	=116	=116	=116	=116	=116	=116	=116	=116	=116	=116	=116
1IVc	B:maj/5	8B	think-	1r	.	1r	.	.	200.203	.	voice
.	.	8A	-in'	.	.	.	.	.	.	.	.
.	.	8B	like	.	.	.	.	.	.	.	.
.	.	8A	a	.	.	.	.	.	.	.	.
.	.	8B	fool	.	.	.	.	.	.	.	.
.	.	16A	'cause	.	.	.	.	.	.	.	.
.	.	[16B	it's	.	.	.	.	.	.	.	.
.	.	16B]	_	.	.	.	.	.	.	.	.
.	.	16A	a	.	.	.	.	.	.	.	.
.	.	[8c#	case	.	.	.	.	.	.	.	.
=117	=117	=117	=117	=117	=117	=117	=117	=117	=117	=117	=117
1I	F#:maj	8c#]	_	1r	.	1r	.	.	201.92	.	voice
.	.	8F#	of	.	.	.	.	.	.	.	.
.	.	16F#	do	.	.	.	.	.	.	.	.
.	.	16E	or	.	.	.	.	.	.	.	.
.	.	4.F#	die	.	.	.	.	E	.	.	.
.	.	8r	.	.	.	.	.	.	.	.	.
.	.	[8f#	Out	.	.	.	.	.	.	.	.
=118	=118	=118	=118	=118	=118	=118	=118	=118	=118	=118	=118
1I	F#:maj	8f#]	_	1r	.	1r	.	.	203.636	newline	voice
.	.	8e	there	.	.	.	.	.	.	.	.
.	.	16f#	is	.	.	.	.	.	.	.	.
.	.	8e	a	.	.	.	.	.	.	.	.
.	.	[16f#	for-	.	.	.	.	.	.	.	.
.	.	8f#]	_	.	.	.	.	.	.	.	.
.	.	4e	-tune	.	.	.	.	.	.	.	.
.	.	[8f#	wai-	.	.	.	.	.	.	.	.
=119	=119	=119	=119	=119	=119	=119	=119	=119	=119	=119	=119
1-VIb	D:maj/3	8f#]	_	1r	.	1r	.	.	205.38	.	voice
.	.	8e	-ting	.	.	.	.	.	.	.	.
.	.	8e	to	.	.	.	.	.	.	.	.
.	.	8f#	be	.	.	.	.	.	.	.	.
.	.	4B	had	.	.	.	.	F	.	.	.
.	.	8r	.	.	.	.	.	.	.	.	.
.	.	8B	You	.	.	.	.	.	.	.	.
=120	=120	=120	=120	=120	=120	=120	=120	=120	=120	=120	=120
1IVc	B:maj/5	8B	think	1r	.	1r	.	.	207.123	.	voice
.	.	8A	I'll	.	.	.	.	.	.	.	.
.	.	8B	let	.	.	.	.	.	.	.	.
.	.	8A	it	.	.	.	.	.	.	.	.
.	.	8B	go	.	.	.	.	.	.	.	.
.	.	4A	you're	.	.	.	.	.	.	.	.
.	.	[8c#	mad	.	.	.	.	F	.	.	.
=121	=121	=121	=121	=121	=121	=121	=121	=121	=121	=121	=121
1v	C#:5	8c#]	_	1r	.	1r	.	.	208.866	.	voice
.	.	8c#	You	.	.	.	.	.	.	.	.
.	.	8B	got	.	.	.	.	.	.	.	.
.	.	8A	a-	.	.	.	.	.	.	.	.
.	.	8B	-no-	.	.	.	.	.	.	.	.
.	.	8A	-ther	.	.	.	.	.	.	.	.
.	.	4c#	thing	.	.	.	.	.	.	.	.
=122	=122	=122	=122	=122	=122	=122	=122	=122	=122	=122	=122
*>Letter>C	*>Letter>C	*>Letter>C	*>Letter>C	*>Letter>C	*>Letter>C	*>Letter>C	*>Letter>C	*>Letter>C	*>Letter>C	*>Letter>C	*>Letter>C
*>Label>Chorus	*>Label>Chorus	*>Label>Chorus	*>Label>Chorus	*>Label>Chorus	*>Label>Chorus	*>Label>Chorus	*>Label>Chorus	*>Label>Chorus	*>Label>Chorus	*>Label>Chorus	*>Label>Chorus
1i	F#:min	8A	co-	1r	.	1r	.	.	210.61	newline	voice
.	.	8F#	-min'	.	.	.	.	.	.	.	.
.	.	4r	.	.	.	.	.	.	.	.	.
.	.	2r	.	.	.	.	.	.	.	.	.
=123	=123	=123	=123	=123	=123	=123	=123	=123	=123	=123	=123
2i	F#:min	8r	.	8r	.	1r	.	.	212.334	.	voice
.	.	8F#	You	8f#	You	.	.	.	.	.	.
.	.	8F#	got	8f#	got	.	.	.	.	.	.
.	.	8F#	a-	8f#	a-	.	.	.	.	.	.
4-IIIg	A:5/6	8A	-no-	8a	-no-	.	.	.	213.196	.	voice
.	.	8F#	-ther	8f#	-ther	.	.	.	.	.	.
4ivc	B:5/5	4B	thing	4b	thing	.	.	.	213.627	.	voice
=124	=124	=124	=124	=124	=124	=124	=124	=124	=124	=124	=124
1i	F#:min	8A	co-	8a	co-	1r	.	.	214.058	.	voice
.	.	8F#	-min'	8f#	-min'	.	.	.	.	.	.
.	.	4r	.	4r	.	.	.	.	.	.	.
.	.	2r	.	2r	.	.	.	.	.	.	.
=125	=125	=125	=125	=125	=125	=125	=125	=125	=125	=125	=125
2i	F#:min	1r	.	1r	.	1r	.	.	215.781	.	voice
4-III	A:5	.	.	.	.	.	.	.	216.643	.	voice
4iv	B:5	.	.	.	.	.	.	.	217.074	.	voice
=126	=126	=126	=126	=126	=126	=126	=126	=126	=126	=126	=126
1i	F#:min	1r	.	1r	.	1r	.	.	217.505	newline	voice
=127	=127	=127	=127	=127	=127	=127	=127	=127	=127	=127	=127
2i	F#:min	8r	.	8r	.	1r	.	.	219.228	.	voice
.	.	8F#	You	8f#	You	.	.	.	.	.	.
.	.	8F#	got	8f#	got	.	.	.	.	.	.
.	.	8F#	a-	8f#	a-	.	.	.	.	.	.
4-IIIg	A:5/6	8A	-no-	8a	-no-	.	.	.	220.09	.	voice
.	.	8F#	-ther	8f#	-ther	.	.	.	.	.	.
4ivc	B:5/5	4B	thing	4b	thing	.	.	.	220.521	.	voice
=128	=128	=128	=128	=128	=128	=128	=128	=128	=128	=128	=128
1i	F#:min	8A	co-	8a	co-	1r	.	.	220.951	.	voice
.	.	8F#	-min'	8f#	-min'	.	.	.	.	.	.
.	.	4r	.	4r	.	.	.	.	.	.	.
.	.	2r	.	2r	.	.	.	.	.	.	.
=129	=129	=129	=129	=129	=129	=129	=129	=129	=129	=129	=129
2i	F#:min	8r	.	8r	.	1r	.	.	222.674	.	voice
.	.	8F#	You	8f#	You	.	.	.	.	.	.
.	.	8F#	got	8f#	got	.	.	.	.	.	.
.	.	8F#	a-	8f#	a-	.	.	.	.	.	.
4-III	A:5	8F#	-no-	8f#	-no-	.	.	.	223.536	.	voice
.	.	8F#	-ther	8f#	-ther	.	.	.	.	.	.
4iv	B:5	4F#	thing	4f#	thing	.	.	.	223.967	.	voice
=130	=130	=130	=130	=130	=130	=130	=130	=130	=130	=130	=130
*>Letter>C	*>Letter>C	*>Letter>C	*>Letter>C	*>Letter>C	*>Letter>C	*>Letter>C	*>Letter>C	*>Letter>C	*>Letter>C	*>Letter>C	*>Letter>C
*>Label>Instrumental	*>Label>Instrumental	*>Label>Instrumental	*>Label>Instrumental	*>Label>Instrumental	*>Label>Instrumental	*>Label>Instrumental	*>Label>Instrumental	*>Label>Instrumental	*>Label>Instrumental	*>Label>Instrumental	*>Label>Instrumental
1i	F#:min	1r	.	1r	.	1r	.	.	224.397	newline	voice
=131	=131	=131	=131	=131	=131	=131	=131	=131	=131	=131	=131
2i	F#:min	1r	.	1r	.	1r	.	.	226.135	.	voice
4-III	A:5	.	.	.	.	.	.	.	227.004	.	voice
4iv	B:5	.	.	.	.	.	.	.	227.438	.	voice
=132	=132	=132	=132	=132	=132	=132	=132	=132	=132	=132	=132
1i	F#:min	1r	.	1r	.	1r	.	.	227.872	.	voice
=133	=133	=133	=133	=133	=133	=133	=133	=133	=133	=133	=133
2i	F#:min	1r	.	1r	.	1r	.	.	229.61	.	voice
4-III	A:5	.	.	.	.	.	.	.	230.479	.	voice
4iv	B:5	.	.	.	.	.	.	.	230.913	.	voice
=134	=134	=134	=134	=134	=134	=134	=134	=134	=134	=134	=134
1i	F#:min	1r	.	1r	.	1r	.	.	231.348	newline	voice
=135	=135	=135	=135	=135	=135	=135	=135	=135	=135	=135	=135
2i	F#:min	1r	.	1r	.	1r	.	.	233.084	.	voice
4-III	A:5	.	.	.	.	.	.	.	233.952	.	voice
4iv	B:5	.	.	.	.	.	.	.	234.386	.	voice
=136	=136	=136	=136	=136	=136	=136	=136	=136	=136	=136	=136
1i	F#:min	1r	.	1r	.	1r	.	.	234.82	.	voice
=137	=137	=137	=137	=137	=137	=137	=137	=137	=137	=137	=137
2i	F#:min	2r	.	1r	.	1r	.	.	236.556	.	voice
4-III	A:5	8ff#	Com-	.	.	.	.	.	237.424	.	voice
.	.	8ff#	-in'	.	.	.	.	.	.	.	.
4iv	B:5	8ff#	to	.	.	.	.	.	237.858	.	voice
.	.	[8ff#	you	.	.	.	.	.	.	.	.
=138	=138	=138	=138	=138	=138	=138	=138	=138	=138	=138	=138
*>Letter>E	*>Letter>E	*>Letter>E	*>Letter>E	*>Letter>E	*>Letter>E	*>Letter>E	*>Letter>E	*>Letter>E	*>Letter>E	*>Letter>E	*>Letter>E
*>Label>Outro	*>Label>Outro	*>Label>Outro	*>Label>Outro	*>Label>Outro	*>Label>Outro	*>Label>Outro	*>Label>Outro	*>Label>Outro	*>Label>Outro	*>Label>Outro	*>Label>Outro
1i	F#:sus4(b7)	4ff#]	_	1r	.	1r	.	.	238.292	newline	voice
.	.	4r	.	.	.	.	.	.	.	.	.
.	.	2r	.	.	.	.	.	.	.	.	.
=139	=139	=139	=139	=139	=139	=139	=139	=139	=139	=139	=139
1IVc	B:maj/5	1r	.	8r	.	1r	.	.	240.042	.	voice
.	.	.	.	8f#	You	.	.	.	.	.	.
.	.	.	.	8f#	got	.	.	.	.	.	.
.	.	.	.	8f#	a-	.	.	.	.	.	.
.	.	.	.	8a	-no-	.	.	.	.	.	.
.	.	.	.	8f#	-ther	.	.	.	.	.	.
.	.	.	.	4b	thing	.	.	.	.	.	.
=140	=140	=140	=140	=140	=140	=140	=140	=140	=140	=140	=140
1i	F#:5	4r	.	8a	co-	1r	.	.	241.792	.	voice
.	.	.	.	8f#	-min'	.	.	.	.	.	.
.	.	8r	.	4r	.	.	.	.	.	.	.
.	.	4a	Hey	.	.	.	.	.	.	.	.
.	.	.	.	2r	.	.	.	.	.	.	.
.	.	8e	uh	.	.	.	.	.	.	.	.
.	.	4r	.	.	.	.	.	.	.	.	.
=141	=141	=141	=141	=141	=141	=141	=141	=141	=141	=141	=141
2I	F#:maj	8r	.	1r	.	1r	.	.	243.541	.	voice
.	.	4e	It's	.	.	.	.	.	.	.	.
.	.	8f#	a	.	.	.	.	.	.	.	.
4-III	A:maj	8f#	com-	.	.	.	.	.	244.416	.	voice
.	.	8f#	-in'	.	.	.	.	.	.	.	.
4iv	B:5	4f#	now	.	.	.	.	.	244.853	.	voice
=142	=142	=142	=142	=142	=142	=142	=142	=142	=142	=142	=142
1i	F#:sus4(b7)	4r	.	1r	.	1r	.	.	245.291	newline	voice
.	.	8r	.	.	.	.	.	.	.	.	.
.	.	4.f#	Oh	.	.	.	.	.	.	.	.
.	.	8e	_	.	.	.	.	.	.	.	.
.	.	8r	.	.	.	.	.	.	.	.	.
=143	=143	=143	=143	=143	=143	=143	=143	=143	=143	=143	=143
1IVc	B:maj/5	4r	.	8r	.	1r	.	.	247.02	.	voice
.	.	.	.	8f#	You	.	.	.	.	.	.
.	.	8r	.	8f#	got	.	.	.	.	.	.
.	.	4.f#	Oh	8f#	a-	.	.	.	.	.	.
.	.	.	.	8a	-no-	.	.	.	.	.	.
.	.	.	.	8f#	-ther	.	.	.	.	.	.
.	.	8e	_	4b	thing	.	.	.	.	.	.
.	.	8r	.	.	.	.	.	.	.	.	.
=144	=144	=144	=144	=144	=144	=144	=144	=144	=144	=144	=144
1i	F#:5	4r	.	8a	co-	1r	.	.	248.749	.	voice
.	.	.	.	8f#	-min'	.	.	.	.	.	.
.	.	8f#	It's	4r	.	.	.	.	.	.	.
.	.	8f#	a	.	.	.	.	.	.	.	.
.	.	8b	com-	2r	.	.	.	.	.	.	.
.	.	8b	-in'	.	.	.	.	.	.	.	.
.	.	8a	down	.	.	.	.	.	.	.	.
.	.	[8e	_	.	.	.	.	.	.	.	.
=145	=145	=145	=145	=145	=145	=145	=145	=145	=145	=145	=145
2I	F#:maj	2.e]	_	1r	.	1r	.	.	250.479	.	voice
4-III	A:maj	.	.	.	.	.	.	.	251.343	.	voice
4iv	B:5	4f#	_	.	.	.	.	.	251.776	.	voice
=146	=146	=146	=146	=146	=146	=146	=146	=146	=146	=146	=146
1i	F#:sus4(b7)	1r	.	1r	.	2.e	Oh	.	252.208	newline	voice
.	.	.	.	.	.	8r	.	.	.	.	.
.	.	.	.	.	.	[8d#	we	.	.	.	.
=147	=147	=147	=147	=147	=147	=147	=147	=147	=147	=147	=147
1IVc	B:maj/5	1r	.	8r	.	1d#]	_	.	253.947	.	voice
.	.	.	.	8f#	You	.	.	.	.	.	.
.	.	.	.	8f#	got	.	.	.	.	.	.
.	.	.	.	8f#	a-	.	.	.	.	.	.
.	.	.	.	8a	-no-	.	.	.	.	.	.
.	.	.	.	8f#	-ther	.	.	.	.	.	.
.	.	.	.	4b	thing	.	.	.	.	.	.
=148	=148	=148	=148	=148	=148	=148	=148	=148	=148	=148	=148
1i	F#:5	1r	.	8a	co-	4c#	come	.	255.687	.	voice
.	.	.	.	8f#	-min'	.	.	.	.	.	.
.	.	.	.	4r	.	4r	.	.	.	.	.
.	.	.	.	2r	.	2r	.	.	.	.	.
=149	=149	=149	=149	=149	=149	=149	=149	=149	=149	=149	=149
2I	F#:maj	1r	.	1r	.	1r	.	.	257.426	.	voice
4-III	A:maj	.	.	.	.	.	.	.	258.296	.	voice
4iv	B:5	.	.	.	.	.	.	.	258.731	.	voice
=150	=150	=150	=150	=150	=150	=150	=150	=150	=150	=150	=150
1i	F#:sus4(b7)	1r	.	1r	.	2.e	Oh	.	259.166	newline	voice
.	.	.	.	.	.	8r	.	.	.	.	.
.	.	.	.	.	.	[8d#	we	.	.	.	.
=151	=151	=151	=151	=151	=151	=151	=151	=151	=151	=151	=151
1IVc	B:maj/5	1r	.	8r	.	1d#]	_	.	260.898	.	voice
.	.	.	.	8f#	You	.	.	.	.	.	.
.	.	.	.	8f#	got	.	.	.	.	.	.
.	.	.	.	8f#	a-	.	.	.	.	.	.
.	.	.	.	8a	-no-	.	.	.	.	.	.
.	.	.	.	8f#	-ther	.	.	.	.	.	.
.	.	.	.	4b	thing	.	.	.	.	.	.
=152	=152	=152	=152	=152	=152	=152	=152	=152	=152	=152	=152
1i	F#:5	1r	.	8a	co-	4c#	come	.	262.63	.	voice
.	.	.	.	8f#	-min'	.	.	.	.	.	.
.	.	.	.	4r	.	4r	.	.	.	.	.
.	.	.	.	2r	.	2r	.	.	.	.	.
=153	=153	=153	=153	=153	=153	=153	=153	=153	=153	=153	=153
2I	F#:maj	1r	.	1r	.	1r	.	.	264.363	.	voice
4-III	A:maj	.	.	.	.	.	.	.	265.229	.	voice
4iv	B:5	.	.	.	.	.	.	.	265.662	.	voice
=154	=154	=154	=154	=154	=154	=154	=154	=154	=154	=154	=154
1i	F#:sus4(b7)	8r	.	1r	.	2.e	Oh	.	266.095	newline	voice
.	.	4f#	Oh	.	.	.	.	.	.	.	.
.	.	8e	yeah	.	.	.	.	.	.	.	.
.	.	4.r	.	.	.	.	.	.	.	.	.
.	.	.	.	.	.	8r	.	.	.	.	.
.	.	[8f#	oh	.	.	[8d#	we	.	.	.	.
=155	=155	=155	=155	=155	=155	=155	=155	=155	=155	=155	=155
1IVc	B:maj/5	8f#]	_	8r	.	1d#]	_	.	267.826	.	voice
.	.	8e	yeah	8f#	You	.	.	.	.	.	.
.	.	4r	.	8f#	got	.	.	.	.	.	.
.	.	.	.	8f#	a-	.	.	.	.	.	.
.	.	2r	.	8a	-no-	.	.	.	.	.	.
.	.	.	.	8f#	-ther	.	.	.	.	.	.
.	.	.	.	4b	thing	.	.	.	.	.	.
=156	=156	=156	=156	=156	=156	=156	=156	=156	=156	=156	=156
1i	F#:5	4r	.	8a	co-	4c#	come	.	269.556	.	voice
.	.	.	.	8f#	-min'	.	.	.	.	.	.
.	.	8f#	It's	4r	.	4r	.	.	.	.	.
.	.	8f#	co-	.	.	.	.	.	.	.	.
.	.	8f#	-min'	2r	.	2r	.	.	.	.	.
.	.	8r	.	.	.	.	.	.	.	.	.
.	.	4r	.	.	.	.	.	.	.	.	.
=157	=157	=157	=157	=157	=157	=157	=157	=157	=157	=157	=157
2I	F#:maj	8r	.	1r	.	1r	.	.	271.286	.	voice
.	.	4f#	It's	.	.	.	.	.	.	.	.
.	.	8f#	a	.	.	.	.	.	.	.	.
4-III	A:maj	8f#	com-	.	.	.	.	.	272.152	.	voice
.	.	8f#	-in'	.	.	.	.	.	.	.	.
4iv	B:5	8f#	to	.	.	.	.	.	272.584	.	voice
.	.	8f#	ya	.	.	.	.	.	.	.	.
=158	=158	=158	=158	=158	=158	=158	=158	=158	=158	=158	=158
1i	F#:sus4(b7)	4r	.	1r	.	2.e	Oh	.	273.017	newline	voice
.	.	8f#	Can	.	.	.	.	.	.	.	.
.	.	8f#	you	.	.	.	.	.	.	.	.
.	.	4a	feel	.	.	.	.	.	.	.	.
.	.	8f#	it?	.	.	8r	.	.	.	.	.
.	.	8r	.	.	.	[8d#	we	.	.	.	.
=159	=159	=159	=159	=159	=159	=159	=159	=159	=159	=159	=159
1IVc	B:maj/5	4r	.	8r	.	1d#]	_	.	274.747	.	voice
.	.	.	.	8f#	You	.	.	.	.	.	.
.	.	8f#	Can	8f#	got	.	.	.	.	.	.
.	.	8f#	you	8f#	a-	.	.	.	.	.	.
.	.	4a	feel	8a	-no-	.	.	.	.	.	.
.	.	.	.	8f#	-ther	.	.	.	.	.	.
.	.	8f#	it?	4b	thing	.	.	.	.	.	.
.	.	8r	.	.	.	.	.	.	.	.	.
=160	=160	=160	=160	=160	=160	=160	=160	=160	=160	=160	=160
1i	F#:5	4r	.	8a	co-	1r	.	.	276.476	.	voice
.	.	.	.	8f#	-min'	.	.	.	.	.	.
.	.	8r	.	4r	.	.	.	.	.	.	.
.	.	8f#	It's	.	.	.	.	.	.	.	.
.	.	8g#	com-	2r	.	.	.	.	.	.	.
.	.	8g#	-in'	.	.	.	.	.	.	.	.
.	.	8e	on	.	.	.	.	.	.	.	.
.	.	8r	.	.	.	.	.	.	.	.	.
=161	=161	=161	=161	=161	=161	=161	=161	=161	=161	=161	=161
2I	F#:maj	8r	.	1r	.	1r	.	.	278.206	.	voice
.	.	8f#	It's	.	.	.	.	.	.	.	.
.	.	8a	come	.	.	.	.	.	.	.	.
.	.	8f#	a?	.	.	.	.	.	.	.	.
4-III	A:maj	4a	_	.	.	.	.	.	279.071	.	voice
4iv	B:5	8f#	??	.	.	.	.	.	279.504	.	voice
.	.	[8a	_	.	.	.	.	.	.	.	.
=162	=162	=162	=162	=162	=162	=162	=162	=162	=162	=162	=162
*>Label>>Fadeout	*>Label>>Fadeout	*>Label>>Fadeout	*>Label>>Fadeout	*>Label>>Fadeout	*>Label>>Fadeout	*>Label>>Fadeout	*>Label>>Fadeout	*>Label>>Fadeout	*>Label>>Fadeout	*>Label>>Fadeout	*>Label>>Fadeout
1i	F#:sus4(b7)	8a]	_?	1r	.	2.e	Oh	.	279.936	newline	voice
.	.	8e	_	.	.	.	.	.	.	.	.
.	.	4f#	??	.	.	.	.	.	.	.	.
.	.	4f#	_	.	.	.	.	.	.	.	.
.	.	8r	.	.	.	8r	.	.	.	.	.
.	.	[8f#	??	.	.	[8d#	we	.	.	.	.
=163	=163	=163	=163	=163	=163	=163	=163	=163	=163	=163	=163
1IVc	B:maj/5	8f#]	_	8r	.	1d#]	_	.	281.672	.	voice
.	.	8e	_	8f#	You	.	.	.	.	.	.
.	.	4f#	??	8f#	got	.	.	.	.	.	.
.	.	.	.	8f#	a-	.	.	.	.	.	.
.	.	4f#	_	8a	-no-	.	.	.	.	.	.
.	.	.	.	8f#	-ther	.	.	.	.	.	.
.	.	4r	.	4b	thing	.	.	.	.	.	.
=164	=164	=164	=164	=164	=164	=164	=164	=164	=164	=164	=164
1i	F#:5	8f#	com-	8a	co-	4c#	come	.	283.408	.	voice
.	.	8f#	-in'	8f#	-min'	.	.	.	.	.	.
.	.	8f#	to	4r	.	4r	.	.	.	.	.
.	.	4f#	you	.	.	.	.	.	.	.	.
.	.	.	.	2r	.	2r	.	.	.	.	.
.	.	8r	.	.	.	.	.	.	.	.	.
.	.	4r	.	.	.	.	.	.	.	.	.
=165	=165	=165	=165	=165	=165	=165	=165	=165	=165	=165	=165
2I	F#:maj	8r	.	1r	.	1r	.	.	285.144	.	voice
.	.	8f#	com-	.	.	.	.	.	.	.	.
.	.	8f#	-in'	.	.	.	.	.	.	.	.
.	.	8f#	to	.	.	.	.	.	.	.	.
4-III	A:maj	4f#	you	.	.	.	.	.	286.012	.	voice
4iv	B:5	4r	.	.	.	.	.	.	286.446	.	voice
=166	=166	=166	=166	=166	=166	=166	=166	=166	=166	=166	=166
1i	F#:sus4(b7)	8r	.	1r	.	2.e	Oh	.	286.88	newline	voice
.	.	2f#	al-	.	.	.	.	.	.	.	.
.	.	8e	-right	.	.	.	.	.	.	.	.
.	.	4r	.	.	.	8r	.	.	.	.	.
.	.	.	.	.	.	[8d#	we	.	.	.	.
=167	=167	=167	=167	=167	=167	=167	=167	=167	=167	=167	=167
1IVc	B:maj/5	1r	.	8r	.	1d#]	_	.	288.598	.	voice
.	.	.	.	8f#	You	.	.	.	.	.	.
.	.	.	.	8f#	got	.	.	.	.	.	.
.	.	.	.	8f#	a-	.	.	.	.	.	.
.	.	.	.	8a	-no-	.	.	.	.	.	.
.	.	.	.	8f#	-ther	.	.	.	.	.	.
.	.	.	.	4b	thing	.	.	.	.	.	.
=168	=168	=168	=168	=168	=168	=168	=168	=168	=168	=168	=168
1i	F#:5	1r	.	8a	co-	4c#	come	.	290.316	.	voice
.	.	.	.	8f#	-min'	.	.	.	.	.	.
.	.	.	.	4r	.	4r	.	.	.	.	.
.	.	.	.	2r	.	2r	.	.	.	.	.
=169	=169	=169	=169	=169	=169	=169	=169	=169	=169	=169	=169
2I	F#:maj	1r	.	1r	.	1r	.	.	292.033	.	voice
4-III	A:maj	.	.	.	.	.	.	.	292.892	.	voice
4iv	B:5	.	.	.	.	.	.	.	293.322	.	voice
=170	=170	=170	=170	=170	=170	=170	=170	=170	=170	=170	=170
1i	F#:sus4(b7)	1r	.	1r	.	2.e	Oh	.	293.751	newline	voice
.	.	.	.	.	.	8r	.	.	.	.	.
.	.	.	.	.	.	[8d#	we	.	.	.	.
=171	=171	=171	=171	=171	=171	=171	=171	=171	=171	=171	=171
1IVc	B:maj/5	1r	.	8r	.	1d#]	_	.	295.477	.	voice
.	.	.	.	8f#	You	.	.	.	.	.	.
.	.	.	.	8f#	got	.	.	.	.	.	.
.	.	.	.	8f#	a-	.	.	.	.	.	.
.	.	.	.	8a	-no-	.	.	.	.	.	.
.	.	.	.	8f#	-ther	.	.	.	.	.	.
.	.	.	.	4b	thing	.	.	.	.	.	.
=172	=172	=172	=172	=172	=172	=172	=172	=172	=172	=172	=172
1i	F#:5	1r	.	8a	co-	4c#	come	.	297.204	.	voice
.	.	.	.	8f#	-min'	.	.	.	.	.	.
.	.	.	.	4r	.	4r	.	.	.	.	.
.	.	.	.	2r	.	2r	.	.	.	.	.
=173	=173	=173	=173	=173	=173	=173	=173	=173	=173	=173	=173
2I	F#:maj	1r	.	1r	.	1r	.	.	298.93	.	voice
4-III	A:maj	.	.	.	.	.	.	.	299.794	.	voice
4iv	B:5	.	.	.	.	.	.	.	300.225	.	voice
=174	=174	=174	=174	=174	=174	=174	=174	=174	=174	=174	=174
1i	F#:sus4(b7)	1r	.	1r	.	2.e	Oh	.	300.657	newline	voice
.	.	.	.	.	.	8r	.	.	.	.	.
.	.	.	.	.	.	[8d#	we	.	.	.	.
=175	=175	=175	=175	=175	=175	=175	=175	=175	=175	=175	=175
1IVc	B:maj/5	1r	.	8r	.	1d#]	_	.	301.644	.	voice
.	.	.	.	8f#	You	.	.	.	.	.	.
.	.	.	.	8f#	got	.	.	.	.	.	.
.	.	.	.	8f#	a-	.	.	.	.	.	.
.	.	.	.	8a	-no-	.	.	.	.	.	.
.	.	.	.	8f#	-ther	.	.	.	.	.	.
.	.	.	.	4b	thing	.	.	.	.	.	.
=176	=176	=176	=176	=176	=176	=176	=176	=176	=176	=176	=176
1i	F#:5	1r	.	8a	co-	4c#	come	.	302.63	.	voice
.	.	.	.	8f#	-min'	.	.	.	.	.	.
.	.	.	.	4r	.	4r	.	.	.	.	.
.	.	.	.	2r	.	2r	.	.	.	.	.
=177	=177	=177	=177	=177	=177	=177	=177	=177	=177	=177	=177
2I	F#:maj	1r	.	1r	.	1r	.	.	303.617	.	voice
4-III	A:maj	.	.	.	.	.	.	.	304.111	.	voice
4iv	B:5	.	.	.	.	.	.	.	304.357	.	voice
1r;	N	r;	.	r;	.	r;	.	.	304.604	.	r
1r;	N	r;	.	r;	.	r;	.	.	310.753	.	r
*-	*-	*-	*-	*-	*-	*-	*-	*-	*-	*-	*-
!!!BillboardChartDate: 1982/11/27
!!!BillboardPeak: 67
!!!BillboardWeeksOnChart: 7
!!!COC: Judas Priest
!!!ENC: Nathaniel Condit-Schultz
!!!EST: Awating manual error checking and editing.
!!!OTL: You've Got Another Thing Comin'
!!!RDF**harte: Chris Harte's syntax, used by MIREX
!!!RDF**harmony: **recip + pitch class of root + harmonic quality
!!!RDF**leadinstrument: original McGill primary instrumentation annotation
!!!RDF**phrase: newline = linebreak in original McGill transcription
!!!RDF**timestamp: McGill audio timestamp in seconds
!!!RDT: 2017/01/12/
!!!SampleActualRank: 67
!!!SampleID#: 0861
!!!SampleTargetRank: 68
!!!MBID: c32da0c6-49ea-4a29-9241-7680e2e0afc5
